packages/ui/public/icons/post-locked-icon.svg

<svg width="24" height="24" viewBox="0 0 24 24" fill="none" xmlns="http://www.w3.org/2000/svg">
<path opacity="0.4" d="M7 10V8C7 5.23858 9.23858 3 12 3C14.0503 3 15.8124 4.2341 16.584 6" stroke="#FF51A8" stroke-width="2" stroke-linecap="round" stroke-linejoin="round"/>
<path d="M12 14.5V16.5M8.8 21H15.2C16.8802 21 17.7202 21 18.362 20.673C18.9265 20.3854 19.3854 19.9265 19.673 19.362C20 18.7202 20 17.8802 20 16.2V14.8C20 13.1198 20 12.2798 19.673 11.638C19.3854 11.0735 18.9265 10.6146 18.362 10.327C17.7202 10 16.8802 10 15.2 10H8.8C7.11984 10 6.27976 10 5.63803 10.327C5.07354 10.6146 4.6146 11.0735 4.32698 11.638C4 12.2798 4 13.1198 4 14.8V16.2C4 17.8802 4 18.7202 4.32698 19.362C4.6146 19.9265 5.07354 20.3854 5.63803 20.673C6.27976 21 7.11984 21 8.8 21Z" stroke="#FF51A8" stroke-width="2" stroke-linecap="round" stroke-linejoin="round"/>
</svg>

<svg xmlns="http://www.w3.org/2000/svg" width="24" height="24" fill="none"><path stroke="#FF51A8" stroke-linecap="round" stroke-linejoin="round" stroke-width="2" d="M7 10V8a5 5 0 0 1 9.584-2" opacity=".4"/><path stroke="#FF51A8" stroke-linecap="round" stroke-linejoin="round" stroke-width="2" d="M12 14.5v2M8.8 21h6.4c1.68 0 2.52 0 3.162-.327a3 3 0 0 0 1.311-1.311C20 18.72 20 17.88 20 16.2v-1.4c0-1.68 0-2.52-.327-3.162a3 3 0 0 0-1.311-1.311C17.72 10 16.88 10 15.2 10H8.8c-1.68 0-2.52 0-3.162.327a3 3 0 0 0-1.311 1.311C4 12.28 4 13.12 4 14.8v1.4c0 1.68 0 2.52.327 3.162a3 3 0 0 0 1.311 1.311C6.28 21 7.12 21 8.8 21Z"/></svg>
